X: 278
T:Recordare, virgo mater / Et ut avertat
N: Derived from Jos2501-Recordare_virgo_mater.krn
C: Josquin des Prez
%%abc-version 2.0
%%abcx-abcm2ps-target-version 5.9.1 (29 Sep 2008)
%%abc-creator hum2abc beta
%%abcx-conversion-date 2019/02/12 16:15:52
%%abc-edited-by Jesse Rodin
%%abc-edited-by Will Watson 15/07/2011
%%abcx-initial-encoding-date 2011/07/15/
%%humdrum-veritas 3450421295
%%humdrum-veritas-data 930831
%%linebreak <none>
%%barnumbers 0
L: 1/4
M: 2/1
Q: 1/2=120
%%staves [1 2 3 4]
V: 1 clef=treble
V: 2 clef=treble
V: 3 clef=treble
V: 4 clef=treble
K: C
[V:1] z8 | 
[V:2] z8 | 
[V:3] z8 | 
[V:4] D4F4 | 
[V:1] z8 | 
[V:2] z8 | 
[V:3] z8 | 
[V:4] F4G4 | 
[V:1] z8 | 
[V:2] z8 | 
[V:3] D4F4 | 
[V:4] F3GA_BA2- | 
[V:1] z8 | 
[V:2] z8 | 
[V:3] F4G4 | 
[V:4] A2GFE4 | 
[V:1] z8 | 
[V:2] D4F4 | 
[V:3] F3GA_BA2- | 
[V:4] z2A3Gc2- | 
[V:1] z8 | 
[V:2] F4G4 | 
[V:3] A2GFE4 | 
[V:4] c2BAB4 | 
[V:1] D4F4 | 
[V:2] F3GA_BA2- | 
[V:3] A4DEFG | 
[V:4] z2A3GFE | 
[V:1] F4G4 | 
[V:2] A2GFE4 | 
[V:3] A2B2c4 | 
[V:4] D4C4 | 
[V:1] F3GA_BA2- | 
[V:2] A4F3G | 
[V:3] z2A3GFE | 
[V:4] D8 | 
[V:1] A2GFE4 | 
[V:2] A2B2c3B | 
[V:3] F4G4 | 
[V:4] D4C4 | 
[V:1] z2A2B2c2 | 
[V:2] AGFED2A2- | 
[V:3] F6E2 | 
[V:4] D6C2 | 
[V:1] A2d2c2d2 | 
[V:2] AG/F/G2A4 | 
[V:3] F2D2E2F2 | 
[V:4] D2B,2A,2D2 | 
[V:1] B2e3dcB | 
[V:2] G2c3BA2- | 
[V:3] G2E2A3G | 
[V:4] E2C2A,4 | 
[V:1] A2d4^c2 | 
[V:2] A2G2A4 | 
[V:3] FED2E4 | 
[V:4] D2B,2A,4 | 
[V:1] d8 | 
[V:2] z2F3GAG | 
[V:3] D8 | 
[V:4] z2D3EF2- | 
[V:1] z4d4 | 
[V:2] ABc4B2 | 
[V:3] z4F4 | 
[V:4] FEDCD4 | 
[V:1] e4edcB | 
[V:2] c8 | 
[V:3] G4G4 | 
[V:4] C8 | 
[V:1] A3Bcdc2- | 
[V:2] z4F4 | 
[V:3] F3GA_BA2- | 
[V:4] z8 | 
[V:1] c2BAG4 | 
[V:2] A3Bc4 | 
[V:3] A2GFE4 | 
[V:4] z4C4 | 
[V:1] F4z4 | 
[V:2] A4d2e2- | 
[V:3] F4z4 | 
[V:4] D3EF2G2- | 
[V:1] z4G4 | 
[V:2] edd3^ccB | 
[V:3] z4C4 | 
[V:4] GFEDE4 | 
[V:1] A3Bc2A2 | 
[V:2] d4z4 | 
[V:3] F3DE2F2 | 
[V:4] D4C2D2 | 
[V:1] B3cd2B2 | 
[V:2] d3cA2d2 | 
[V:3] G3EF2G2 | 
[V:4] z8 | 
[V:1] c3de2c2 | 
[V:2] c2A3GE2 | 
[V:3] A3Bc2A2 | 
[V:4] A,8 | 
[V:1] d2e3dcB | 
[V:2] F2G2A4- | 
[V:3] B2c3BAG | 
[V:4] D2C2A,4 | 
[V:1] A2D3EFG | 
[V:2] A4z2F2- | 
[V:3] F3GA4 | 
[V:4] D3EF2D2- | 
[V:1] ABcde2d2 | 
[V:2] F2E4A2- | 
[V:3] F2A2G2F2 | 
[V:4] DCA,2C2D2 | 
[V:1] c2d4^c2 | 
[V:2] A2G2A4 | 
[V:3] E2D2E4 | 
[V:4] A,2B,2A,4 | 
[V:1] d8 | 
[V:2] F4D4 | 
[V:3] D8 | 
[V:4] z2A3GFE | 
[V:1] z8 | 
[V:2] F4G4 | 
[V:3] z8 | 
[V:4] DCF4E2 | 
[V:1] z8 | 
[V:2] A3BABc2- | 
[V:3] z8 | 
[V:4] F4F4 | 
[V:1] z8 | 
[V:2] c2BAB4 | 
[V:3] z8 | 
[V:4] G8 | 
[V:1] c4d3c/B/ | 
[V:2] A4z2A2 | 
[V:3] z4F4 | 
[V:4] F4D4 | 
[V:1] A2d4^c2 | 
[V:2] A4G4 | 
[V:3] F4G4 | 
[V:4] z2D2E4 | 
[V:1] d2DEFGAB | 
[V:2] F4DEFG | 
[V:3] A3GF2ED | 
[V:4] D6CB, | 
[V:1] c2ABcde2- | 
[V:2] ABc2ABcd | 
[V:3] E8 | 
[V:4] A,8- | 
[V:1] edcBA3B | 
[V:2] e3dcBA2- | 
[V:3] C3DE2F2 | 
[V:4] A,8 | 
[V:1] c2d4^c2 | 
[V:2] A2G2A4- | 
[V:3] E2D2E4 | 
[V:4] A,2B,2A,4 | 
[V:1] d4d2cB | 
[V:2] A4z4 | 
[V:3] D8 | 
[V:4] D4z4 | 
[V:1] AGFED4 | 
[V:2] F4A4 | 
[V:3] z8 | 
[V:4] D4F4 | 
[V:1] z4d4 | 
[V:2] G2c4B2 | 
[V:3] z4F4 | 
[V:4] E2DCD4 | 
[V:1] e6dc | 
[V:2] c8 | 
[V:3] G4A4 | 
[V:4] C4A,4 | 
[V:1] B2c4BA | 
[V:2] z4e4- | 
[V:3] G2A3Bc2 | 
[V:4] z4A,4 | 
[V:1] G2A4^G2 | 
[V:2] e2d2e4 | 
[V:3] B2A2B4 | 
[V:4] E2F2E4 | 
[V:1] A4z2c2- | 
[V:2] c3de4 | 
[V:3] A8 | 
[V:4] A,8 | 
[V:1] c2d4e2- | 
[V:2] A4B4 | 
[V:3] F4G4 | 
[V:4] z8 | 
[V:1] edcBA2B2 | 
[V:2] c4d4 | 
[V:3] A4F4 | 
[V:4] A,4D4 | 
[V:1] c3de2c2 | 
[V:2] e3dcBA2 | 
[V:3] G4z2E2 | 
[V:4] C4A,4 | 
[V:1] d2e3dcB | 
[V:2] B2c3BAG | 
[V:3] F3GA3B | 
[V:4] D2C2A,4 | 
[V:1] AGFED4 | 
[V:2] F2D3EFG | 
[V:3] c2F3GA2- | 
[V:4] z2A3GFE | 
[V:1] DEFGABcd | 
[V:2] A3GF2E2- | 
[V:3] A2F3GA2 | 
[V:4] D6A,2 | 
[V:1] e2d4^c2 | 
[V:2] E2A4A2 | 
[V:3] G2F2E4 | 
[V:4] C2D2A,4 | 
[V:1] d8 ||  
[V:2] A8 ||  
[V:3] D8 ||  
[V:4] D8 ||  
[V:1] [M:2/1]A4AGAB | 
[V:2] [M:2/1]z8 | 
[V:3] [M:2/1]z8 | 
[V:4] [M:2/1]F8 | 
[V:1] c2d4e2- | 
[V:2] z8 | 
[V:3] z8 | 
[V:4] F4G4 | 
[V:1] edcBA3B | 
[V:2] z8 | 
[V:3] z8 | 
[V:4] A4F4- | 
[V:1] cAd4c2 | 
[V:2] z4G4 | 
[V:3] z4z2C2 | 
[V:4] F2EDE4 | 
[V:1] d2A3Bc2- | 
[V:2] A3GF2E2 | 
[V:3] F3GA2G2- | 
[V:4] z4z2C2 | 
[V:1] c2B2c4- | 
[V:2] FGAFG4 | 
[V:3] GFF4E2 | 
[V:4] D4C4 | 
[V:1] c4c4 | 
[V:2] A8 | 
[V:3] F4z4 | 
[V:4] F8 | 
[V:1] d4d4 | 
[V:2] A4F4 | 
[V:3] F4A4 | 
[V:4] D4D4 | 
[V:1] e4e4 | 
[V:2] G4G4 | 
[V:3] c4c4 | 
[V:4] C4E4 | 
[V:1] A4e4- | 
[V:2] F4G4 | 
[V:3] d4B4 | 
[V:4] D4E4 | 
[V:1] e8 | 
[V:2] G8 | 
[V:3] c8 | 
[V:4] C4C4 | 
[V:1] d8 | 
[V:2] F8 | 
[V:3] A8 | 
[V:4] D8 | 
[V:1] d4d4- | 
[V:2] A4A4- | 
[V:3] D4F4- | 
[V:4] F4D4- | 
[V:1] d2d2d2d2 | 
[V:2] A2A2D2D2 | 
[V:3] F2F2G2G2 | 
[V:4] D2D2B,2B,2 | 
[V:1] c3BAGA2- | 
[V:2] E8 | 
[V:3] A3GABc2- | 
[V:4] A,8 | 
[V:1] A2GFE4 | 
[V:2] z4c4 | 
[V:3] c2BAG4 | 
[V:4] z4C4 | 
[V:1] F4z4 | 
[V:2] A3GABc2 | 
[V:3] F8 | 
[V:4] DCDEFGA2 | 
[V:1] z8 | 
[V:2] d2e3dd2- | 
[V:3] z8 | 
[V:4] F2G2D4 | 
[V:1] G4A3G | 
[V:2] d2^c2d4 | 
[V:3] z4F3E | 
[V:4] E4D4 | 
[V:1] ABc2d2e2- | 
[V:2] d2A3Bc2 | 
[V:3] FGA2F2G2 | 
[V:4] z2A,2D2C2 | 
[V:1] edd4^c2 | 
[V:2] G4A4 | 
[V:3] D4E4 | 
[V:4] _B,4A,4 | 
[V:1] d8 | 
[V:2] F2D2F3G | 
[V:3] D8 | 
[V:4] z2A3GFE | 
[V:1] z2d4cB | 
[V:2] A8 | 
[V:3] z4D4 | 
[V:4] D4z4 | 
[V:1] AGABc2d2- | 
[V:2] z4z2A2 | 
[V:3] F4F4 | 
[V:4] z8 | 
[V:1] dcBAB4 | 
[V:2] BABcd2e2 | 
[V:3] G4G4 | 
[V:4] z4G4 | 
[V:1] A8 | 
[V:2] c2d4cB | 
[V:3] F8 | 
[V:4] A4D4 | 
[V:1] z8 | 
[V:2] A4B2c2- | 
[V:3] z8 | 
[V:4] F4G2A2- | 
[V:1] z8 | 
[V:2] cBA2G4 | 
[V:3] z8 | 
[V:4] AGF4E2 | 
[V:1] z2F4A2- | 
[V:2] F4A3B | 
[V:3] z4F4 | 
[V:4] F4D2F2- | 
[V:1] A2c3de2 | 
[V:2] c4z4 | 
[V:3] A4c4 | 
[V:4] F2EDC4 | 
[V:1] d2B3cd2 | 
[V:2] z8 | 
[V:3] B2d4cB | 
[V:4] G8 | 
[V:1] c2d3cB2 | 
[V:2] z4z2d2 | 
[V:3] A2B3AG2- | 
[V:4] z2G2G2G2 | 
[V:1] A4B4 | 
[V:2] d2d2d4 | 
[V:3] G2^F2G4 | 
[V:4] D4z4 | 
[V:1] e4d4 | 
[V:2] c4A4 | 
[V:3] G4F4 | 
[V:4] C4D4 | 
[V:1] d4d4 | 
[V:2] D4D4 | 
[V:3] F4G4 | 
[V:4] B,4B,4 | 
[V:1] c8 | 
[V:2] E8 | 
[V:3] A8 | 
[V:4] A,8 | 
[V:1] z2F4A2- | 
[V:2] F4A3B | 
[V:3] z4F4 | 
[V:4] D6F2- | 
[V:1] A2c3de2 | 
[V:2] c4z4 | 
[V:3] A4c4 | 
[V:4] F2EDC4 | 
[V:1] d2B3cd2 | 
[V:2] z8 | 
[V:3] B2d4cB | 
[V:4] G8 | 
[V:1] c2d3cB2 | 
[V:2] z4z2d2 | 
[V:3] A2B3AG2- | 
[V:4] z2G2G2G2 | 
[V:1] A4B4 | 
[V:2] d2d2dcBA | 
[V:3] G2^F2G4 | 
[V:4] D4z4 | 
[V:1] z4d4 | 
[V:2] B2B2A3B | 
[V:3] G4F4 | 
[V:4] z4D4 | 
[V:1] e4d2e2- | 
[V:2] c4F2G2 | 
[V:3] G3AB2c2- | 
[V:4] C4D2C2 | 
[V:1] e2dcB2c2- | 
[V:2] A4z2e2- | 
[V:3] c2BAG2A2- | 
[V:4] A,B,CDE2A,2- | 
[V:1] cBA4^G2 | 
[V:2] e2e2e2e2 | 
[V:3] ABc2B4 | 
[V:4] A,4E4 | 
[V:1] A2c3BA2- | 
[V:2] c3BA4 | 
[V:3] A8 | 
[V:4] A,4z4 | 
[V:1] AGFEF4 | 
[V:2] z2F2A3B | 
[V:3] z8 | 
[V:4] D4D4 | 
[V:1] G4z4 | 
[V:2] c4d2e2- | 
[V:3] z8 | 
[V:4] C2E2F2G2- | 
[V:1] z4d4 | 
[V:2] edc4B2 | 
[V:3] z4F4 | 
[V:4] GFEFD4 | 
[V:1] e4A4 | 
[V:2] c4d4 | 
[V:3] G4D4 | 
[V:4] C4F4- | 
[V:1] c8 | 
[V:2] z2A2c4- | 
[V:3] A4G4- | 
[V:4] F4E4 | 
[V:1] d8 | 
[V:2] c2BAB4 | 
[V:3] G2FEF4 | 
[V:4] D4D4 | 
[V:1] e8 | 
[V:2] c8 | 
[V:3] G6A2- | 
[V:4] C8 | 
[V:1] z4d4 | 
[V:2] z4A4 | 
[V:3] AGFEF4 | 
[V:4] D8 | 
[V:1] e6e2 | 
[V:2] c2BAG2A2- | 
[V:3] G4C4 | 
[V:4] C6A,2 | 
[V:1] d6d2 | 
[V:2] A2^G^FG4 | 
[V:3] D6D2 | 
[V:4] B,6B,2 | 
[V:1] c8 | 
[V:2] A4A4- | 
[V:3] E8 | 
[V:4] A,8 | 
[V:1] d4e4 | 
[V:2] A4c4 | 
[V:3] F4G4 | 
[V:4] D4C4 | 
[V:1] A4c4 | 
[V:2] d4z4 | 
[V:3] D4A4 | 
[V:4] F4z2F2 | 
[V:1] c4c4 | 
[V:2] z8 | 
[V:3] A4A4 | 
[V:4] F4F4 | 
[V:1] B4e4 | 
[V:2] z4G4 | 
[V:3] d4c4 | 
[V:4] G4C4 | 
[V:1] e8 | 
[V:2] G8 | 
[V:3] c8 | 
[V:4] C8 | 
[V:1] d8 | 
[V:2] F4FEFG | 
[V:3] A8 | 
[V:4] D8 | 
[V:1] z4z2c2- | 
[V:2] A2B2c2F2 | 
[V:3] z8 | 
[V:4] F2G2A3G | 
[V:1] c2d4e2- | 
[V:2] A4B2c2- | 
[V:3] F4G4 | 
[V:4] FED2z2C2 | 
[V:1] edcBA2B2 | 
[V:2] cde4d2 | 
[V:3] A4F4 | 
[V:4] A,4D4 | 
[V:1] c3de2c2 | 
[V:2] e3dcBA2 | 
[V:3] G4z2E2 | 
[V:4] C4z2A,2 | 
[V:1] d2e3dcB | 
[V:2] B2c3BAG | 
[V:3] F3GA3B | 
[V:4] D2C2A,4 | 
[V:1] AGFED4 | 
[V:2] F2D3EFG | 
[V:3] c2F3GA2- | 
[V:4] z2A3GFE | 
[V:1] DEFGABcd | 
[V:2] A3GF2E2- | 
[V:3] A2F3GA2 | 
[V:4] D6A,2 | 
[V:1] e2d4^c2 | 
[V:2] E2A6 | 
[V:3] G2F2E4 | 
[V:4] C2D2A,4 | 
[V:1] d8 | 
[V:2] F4G4 | 
[V:3] D8 | 
[V:4] _B,8 | 
[V:1] ^c8- | 
[V:2] A8- | 
[V:3] E8- | 
[V:4] A,8- | 
[V:1] c8 | 
[V:2] A8- | 
[V:3] E8 | 
[V:4] A,8 | 
[V:1] d8 |]  
[V:2] A8 |]  
[V:3] D8 |]  
[V:4] D8 |]  



